!!!COM:	la Rue, Pierre de
!!!CDT:	~1452///-1518/11/20
!!!OPR:	Missa Nunca fu&eacute; pena mayor
!!!ONM:	5
!!!OTL:	Agnus Dei
!!!AGN:	Mass; Agnus Dei
!!!SCT:	Rue1020e
!!!SCA:	Rue1020e
!!!voices:	4
!!!voices-OPR:	4
!!!ONB: only one agnus dei section is extant
**kern	**kern	**kern	**kern
*staff4	*staff3	*staff2	*staff1
*Ivox	*Ivox	*Ivox	*Ivox
*I"Bassus	*I"Tenor	*I"Contra	*I"Discantus
*I'B	*I'T	*I'C	*I'D
*clefF4	*clefGv2	*clefGv2	*clefG2
*k[]	*k[]	*k[]	*k[]
*M3/1	*M3/1	*M3/1	*M3/1
*met(O)	*met(O)	*met(O)	*met(O)
!!section: Agnus Dei I
!!!OMD: Agnus Dei I
=1-	=1-	=1-	=1-
0.r	1e	1E	0.r
.	0e	0G	.
=2	=2	=2	=2
0.r	1c	1G	1e
.	2.d\	1B	1g
.	4c\	.	.
.	1A	2.c\	1a
.	.	4B\	.
=3	=3	=3	=3
1r	0e	2G/	2b\
.	.	2A/	2.cc\
1E	.	2E/	.
.	.	.	4b\
.	.	2e\	2g/
1F	1d	2A/	[1a
.	.	[2f\	.
=4	=4	=4	=4
0F	1.c	2f\]	1a]
.	.	4e\	.
.	.	4d\	.
.	.	2c\	1a
.	2d\	2A/	.
1E	1e	2B\	2.g/
.	.	2c\	.
.	.	.	4a/
=5	=5	=5	=5
2r	2r	2B\	2b\
2E\	2c\	2e\	2g/
2F\	2d\	2A/	2r
1E	2e\	2B\	2g/
.	1f	2c\	1a
2D\	.	2d\	.
=6	=6	=6	=6
1E	2e\	2B\	2.g/
.	2c\	2e\	.
.	.	.	4a/
1r	1d	2f\	4b\
.	.	.	4cc\
.	.	2d\	1dd
1r	1A	2e\	.
.	.	2e\	2cc\
=7	=7	=7	=7
1r	1d	1f	2a/
.	.	.	1b
1E	2B\	0e	.
.	2c\	.	1a
1E	1B	.	.
.	.	.	2g#i/
=8	=8	=8	=8
0F	0A	2c\	0a
.	.	2.d\	.
.	.	4c\	.
.	.	4B\	.
.	.	4A/	.
1E	1G	1B	1r
=9	=9	=9	=9
2r	1A	1A	1cc
2A\	.	.	.
2G\	1r	2r	2b\
2A\	.	2.c\	2.cc\
2F\	1r	.	.
.	.	4d\	4b\
2E\	.	2e\	2g/
=10	=10	=10	=10
2r	0c	2A/	2a/
2.A\	.	2.c\	2e/
.	.	.	2r
4G\	.	4d\	.
2E\	.	2e\	2g/
2F\	1c	2A/	2a/
2E\	.	[2e\	2g/
=11	=11	=11	=11
2r	1c	4e\]	2e/
.	.	4d\	.
1F	.	4c\	1a
.	.	4B\	.
.	1d	1A	.
2D\	.	.	2f/
2E\	[1c	1r	2g/
2F\	.	.	2a/
=12	=12	=12	=12
2E\	0c]	2r	2g/
2.A\	.	2e\	2e/
.	.	2f\	2.cc\
4G\	.	.	.
2E\	.	2g\	.
.	.	.	4b\
2F\	2r	1c	2a/
2E\	[2c\	.	2g/
=13	=13	=13	=13
2F\	2c\]	2f\	2a/
2.G\	2B\	4d\	2.b\
.	.	2e\	.
.	1G	.	.
4F\	.	2d\	4a/
2E\	.	.	1g
.	.	4c\	.
1D	1A	1d	.
.	.	.	2f#i/
=14	=14	=14	=14
2r	1G	1.B	0g
1E	.	.	.
.	2G/	.	.
2E\	1c	4A/	.
.	.	4G/	.
1F	.	1A	1r
.	2d\	.	.
=15	=15	=15	=15
1E	0e	2B\	2.g/
.	.	2c\	.
.	.	.	4a/
2r	.	2B\	2b\
2A\	.	2A/	2.cc\
2F\	2r	2c\	.
.	.	.	4a/
2G\	2d\	2B\	2b\
=16	=16	=16	=16
1A	1c	4A/	2e/
.	.	2c\	.
.	.	.	2a/
.	.	8B/L	.
.	.	8A/J	.
[0E	0g	2.G/	2b\
.	.	.	2cc\
.	.	4A/	.
.	.	2B\	2b\
.	.	2c\	[2ee\
=17	=17	=17	=17
1E]	1g	2B\	4ee\]
.	.	.	4dd\
.	.	2G/	4cc\
.	.	.	4b\
1r	1f	2A/	4a/
.	.	.	4g/
.	.	2B\	1dd
1r	2e\	2c\	.
.	2c\	2A/	[2cc\
=18	=18	=18	=18
1r	1d	1G	2cc\]
.	.	.	2b\
2r	1c	2g\	2cc\
2E\	.	4e\	2g/
.	.	2e\	.
2F\	2A/	.	2a/
.	.	4d\	.
2E\	2B\	2e\	2g/
=19	=19	=19	=19
2.A\	2.c\	2A/	2f/
.	.	2.c\	2e/
4G\	4B\	.	.
2F\	2A/	.	2.cc\
.	.	4d\	.
2E\	2G/	2e\	.
.	.	.	4b\
1r	2r	2f\	2a/
.	4G/	2d\	[2g/
.	4F/	.	.
=20	=20	=20	=20
2r	2G/	1r	2g/]
2D\	2A/	.	1f
2E\	2G/	1r	.
2C/	2E/	.	1e
1D	1F	2r	.
.	.	2A/	2d/
=21	=21	=21	=21
1r	[0.El	2B\	[0.el
.	.	2G/	.
1AA	.	2A/	.
.	.	1c	.
4AA/	.	.	.
4BB/	.	.	.
4C/	.	2B\	.
4D\	.	.	.
=22	=22	=22	=22
0.El	0.E]	0.Bl	0.e]
==	==	==	==
*-	*-	*-	*-
!!!RDF**kern: l=long note in original notation
!!!RDF**kern: i=editorial accidental
!!!RDF**kern: V=start of tuplet marker
!!!RDF**kern: Z=end of tuplet marker
!!!ENC:	Jesse Rodin; Chris Gage 10-25-2012
!!!END:	2012/11/10/
!!!EED:	Jesse Rodin
!!!EEV:	2012/12/15/
!!!ONB:	Translated from MusicXML and edited on 2012/12/15/ by Craig Sapp
!!muse2ps: T^@{OPR}^u^@{ONM}{. }@{OTL}^C^@{COM}^i2I150v85,85,85,150Q16
